X: 36207
T: Scotty's Highland
R: jig
M: 6/8
K: Amajor
cB|AEA cAc|ece a3|g3 f2 d|B3 B2 A|
GEG BGB|dBd g3|f3 fec|A3 AcB|
AEA cAc|ece a3|g3 f2 d|f3 f2 g|
aba gfe|fec Ace|fef g2 e|a3||
cd^d|e^de fec|e^de fec|e^de g2 f|d3 d2 c|
dcd gfe|dcd gfe|dcd f2 e|c3 c2 d|
e^de fec|e^de fec|Ace ag=g|f3 f2 g|
aba gfe|fec Ace|fef g2 e|a3- a3||
|:c'gb a3|aga e3|aga c'ae|d3- d3|
EGB EGB|EGB g3|f3 fec|1 A3 Ace:|2 A3- A||

